!!!OTL: "Luftschloesser" WENN ICH MAL GROSS BIN
!!!ARE: Europa, Mitteleuropa, Oesterreich
!!!SCT: Z1370
!!!YEM: Copyright 1995, estate of Helmut Schaffrath.
**kern
*ICvox
*Ivox
*M3/4
*k[b-]
*F:
{4a
4a
4b-
=1
2cc
4a}
=2
{4b-
4b-
4g
=3
2a
4f}
=4
{4a
4a
4b-
=5
2cc
4a}
=6
{4b-
4b-
4g
=7
2.a}
=8
{4.f
8g
8a
8b-
=9
2cc
4ff}
=10
{4b-
4b-
4g
=11
2.f}
==
!!!AGN: Kinder - Lied
!!!ONB: ESAC (Essen Associative Code) Database: ZUCCAL
!!!AMT: simple triple
!!!AIN: vox
!!!EED: Helmut Schaffrath
!!!EEV: 1.0
*-
